!!!!SEGMENT: pl-wn--sd-xvi-o-270_anonim--kancjonal-zamoyskich-koleda-tak-ci-pan-bog-swiat-barzo-umilowal.krn
!!!cenid: 15xx:826
!!!COM: Anonim
!!!COM-rismID: pe30004985
!!!CDT:
!!!CNT:
!!!OTL: Kancjonał Zamoyskich
!!!PDT: 1558
!!!AGN:
!!!YEC: Copyright 2022 Narodowy Instytut Fryderyka Chopina (https://polishscores.org)
!!!YEM: License CC-BY-4.0 (https://creativecommons.org/licenses/by/4.0)
!!!SMS-siglum: PL-Wn
!!!SMS-shelfmark: SD XVI.O.270
!!!SMS-shelfwork: W
!!!SMS-variant:
!!!SMS-altvar:
!!!NIFC-rismSourceID:
!!!NIFC-rismChildID:
!!!AIN: 1 alto 1 bass 1 soprn 1 tenor
!!!NIFC-islandoraID: none
!!!URL-pdf-islandora:
!!!URL-scan: https://polona2.pl/item/koleda-z-ewanieliey-s-lukassa-wtrzeciey-kapitule-o-narodzeniu-panskim,MTE3MTU0NQ/3 @EN{Scan on Polona} @PL{Skany w portalu Polona}
!!!IIIF: https://polona2.pl/iiif/item/MTE3MTU0NQ/manifest.json
!!!ONB-nifc: UWAGA: proszę zapisywać tylko teksty występujące bezpośrednio pod nutami
!!!key: F
**kern	**text	**mod-text	**kern	**text	**mod-text	**kern	**text	**mod-text	**kern	**text	**mod-text
*part4	*	*	*part3	*	*	*part2	*	*	*part1	*	*
*staff4	*	*	*staff3	*	*	*staff2	*	*	*staff1	*	*
*I"BAS.	*	*	*I"TENOR.	*	*	*I"ALT.	*	*	*I"CANTVS.	*	*
*mI"Basso	*	*	*mI"Tenore	*	*	*mI"Alto	*	*	*mI"Soprano	*	*
*I'B	*	*	*I'T	*	*	*I'A	*	*	*I'S	*	*
*Ibass	*	*	*Itenor	*	*	*Ialto	*	*	*Isoprn	*	*
*ICvox	*	*	*ICvox	*	*	*ICvox	*	*	*ICvox	*	*
*clefF4	*	*	*clefC4	*	*	*clefC3	*	*	*clefC1	*	*
*	*	*	*mclefGv2	*	*	*mclefG2	*	*	*mclefG2	*	*
*k[b-]	*	*	*k[b-]	*	*	*k[b-]	*	*	*k[b-]	*	*
*F:	*	*	*F:	*	*	*F:	*	*	*F:	*	*
*M2/1	*	*	*M2/1	*	*	*M2/1	*	*	*M2/1	*	*
*met(C|)	*	*	*met(C|)	*	*	*met(C|)	*	*	*met(C|)	*	*
*mmet(c|)	*	*	*mmet(c|)	*	*	*mmet(c|)	*	*	*mmet(c|)	*	*
=1-	=1-	=1-	=1-	=1-	=1-	=1-	=1-	=1-	=1-	=1-	=1-
*xywh-#5:2800,1737,1897,663	*	*	*xywh-#5:2779,341,2100,901	*	*	*xywh-#5:855,2053,1833,651	*	*	*xywh-#5:775,424,1908,791	*	*
1.F	.	Ta-	1F	Tak	Ta-	1.c	.	Ta-	1f	.	Ta-
.	.	.	1A	ci	-koć	.	.	.	2f/	.	-koć
2D/	.	-koć	.	.	.	2d\	.	-koć	2.a\	.	Pan
=2-	=2-	=2-	=2-	=2-	=2-	=2-	=2-	=2-	=2-	=2-	=2-
!	!	!	!	!	!	!LO:SIC:o=1e	!	!	!	!	!
2.A\	.	Pan	1F	pan	Pan	1d	.	Pan	.	.	.
.	.	.	.	.	.	.	.	.	4g/	.	.
.	.	.	.	.	.	.	.	.	4a\	.	.
4G\	.	.	.	.	.	.	.	.	4b-\	.	.
1F	.	Bóg	1A	bog	Bóg	1f	.	Bóg	1.cc	.	Bóg
=3-	=3-	=3-	=3-	=3-	=3-	=3-	=3-	=3-	=3-	=3-	=3-
2C/	.	świat	0c	ſwiat	świat	2e\	.	świat	.	.	.
2F\	.	.	.	.	.	2f\	.	.	4b-\	.	.
.	.	.	.	.	.	.	.	.	4a\	.	.
2E\	.	.	.	.	.	2g\	.	.	2g/	.	świat
1F\	.	bar-	.	.	.	2f\	.	bar-	1a\	.	bar-
=4-	=4-	=4-	=4-	=4-	=4-	=4-	=4-	=4-	=4-	=4-	=4-
.	.	.	1A	bar-	bar-	2c/	.	.	.	.	.
4E\	.	.	.	.	.	2d\	.	-dzo	4g/	.	.
4D\	.	.	.	.	.	.	.	.	4f/	.	.
1C	.	-dzo	1c	-zo	-dzo	2.G/	.	u-	1e	.	-dzo
.	.	.	.	.	.	4A/	.	.	.	.	.
=5-	=5-	=5-	=5-	=5-	=5-	=5-	=5-	=5-	=5-	=5-	=5-
!	!	!	!	!	!	!	!	!	!LO:SIC:v:t=custos g	!	!
1G	.	u-	1B-	u-	u-	4B-/	.	.	2d/	.	u-
.	.	.	.	.	.	4c/	.	.	.	.	.
!	!	!	!	!	!	!	!	!	!LO:LB:g=original	!	!
*	*	*	*	*	*	*	*	*	*xywh-#5:770,1174,1914,459	*	*
.	.	.	.	.	.	2d\	.	.	2.g/	.	-mi-
!LO:SIC:v:t=custos D	!	!	!	!	!	!	!	!	!	!	!
!	!	!	!	!	!	!LO:SIC:v:t=custos c	!	!	!	!	!
1E	.	-mi-	1G	-mi-	-mi-	2e\	.	-mi-	.	.	.
.	.	.	.	.	.	.	.	.	4f/	.	.
!	!	!	!	!	!	!LO:LB:g=original	!	!	!	!	!
*	*	*	*	*	*	*xywh-#5:849,2658,1850,587	*	*	*	*	*
.	.	.	.	.	.	2c/	.	.	2e/	.	.
!LO:LB:g=original	!	!	!	!	!	!	!	!	!	!	!
=6-	=6-	=6-	=6-	=6-	=6-	=6-	=6-	=6-	=6-	=6-	=6-
*xywh-#5:2789,2377,1885,512	*	*	*	*	*	*	*	*	*	*	*
2.D/	.	-ło-	0A	-ło-	-ło-	1.d	.	-ło-	2.f/	.	-ło-
4C/	.	.	.	.	.	.	.	.	4e/	.	.
4D/	.	.	.	.	.	.	.	.	4f/	.	.
4E\	.	.	.	.	.	.	.	.	4g/	.	.
2F\	.	.	.	.	.	4c/	.	.	2a\	.	.
.	.	.	.	.	.	4d\	.	.	.	.	.
=7-	=7-	=7-	=7-	=7-	=7-	=7-	=7-	=7-	=7-	=7-	=7-
2C/	.	-wał	1c	-wał	-wał	1e	.	-wał	2g/	.	-wał
2AA/	.	iż	.	.	.	.	.	.	2cc\	.	iż
1.D	.	Sy-	1A	Iſz	iż	1.d	.	iż	2.f/	.	Sy-
.	.	.	.	.	.	.	.	.	4g/	.	.
=8-	=8-	=8-	=8-	=8-	=8-	=8-	=8-	=8-	=8-	=8-	=8-
.	.	.	1F	ſy-	Sy-	.	.	.	2a\	.	.
2BB-/	.	.	.	.	.	2d\	.	Sy-	2b-\	.	.
!LO:SIC:o=1E	!	!	!	!	!	!	!	!	!	!	!
1E-i	.	-na	1G	-na	-na	2B-/	.	.	1g	.	-na
.	.	.	.	.	.	2c/	.	-na	.	.	.
=9-	=9-	=9-	=9-	=9-	=9-	=9-	=9-	=9-	=9-	=9-	=9-
!	!	!	!LO:SIC:v:t=custos A	!	!	!	!	!	!	!	!
2.D/	.	ſwo-	1A	ſwo-	ſwo-	1d	.	ſwo-	2.f/	.	ſwo-
!LO:SIC:o=8C/	!	!	!	!	!	!	!	!	!LO:SIC:v:t=custos a	!	!
8CL	.	.	.	.	.	.	.	.	4g/	.	.
!LO:SIC:o=8BB-/	!	!	!	!	!	!	!	!	!	!	!
8BB-J	.	.	.	.	.	.	.	.	.	.	.
!	!	!	!LO:LB:g=original	!	!	!	!	!	!LO:LB:g=original	!	!
*	*	*	*xywh-#5:2761,1207,1908,558	*	*	*	*	*	*xywh-#5:810,1611,1879,465	*	*
2AA/	.	-je-	1A	-ie-	-je-	2c/	.	-je-	2a\	.	-je-
2D/	.	.	.	.	.	2d\	.	.	2f/	.	.
=10-	=10-	=10-	=10-	=10-	=10-	=10-	=10-	=10-	=10-	=10-	=10-
!LO:SIC:v:t=custos C	!	!	!	!	!	!	!	!	!	!	!
2GG/	.	-go	1G	-go	-go	2B-/	.	-go	2g/	.	-go
!LO:LB:g=original	!	!	!	!	!	!	!	!	!	!	!
*xywh-#5:2835,2866,1833,529	*	*	*	*	*	*	*	*	*	*	*
2C/	.	.	.	.	.	2c/	.	.	2e/	.	.
2BB-/	.	tu	1B-	tu	tu	1d	.	tu	2f/	.	tu
2GG/	.	.	.	.	.	.	.	.	2g/	.	.
=11-	=11-	=11-	=11-	=11-	=11-	=11-	=11-	=11-	=11-	=11-	=11-
2AA/	.	nań	1A	nań	nań	1c	.	nań	2e/	.	nań
2FF/	.	.	.	.	.	.	.	.	1f	.	po-
1C	.	po-	1G	poſ-	po-	1c	.	po-	.	.	.
.	.	.	.	.	.	.	.	.	2e/	.	.
=12-	=12-	=12-	=12-	=12-	=12-	=12-	=12-	=12-	=12-	=12-	=12-
!LO:SIC:o=0FFl	!	!	!LO:SIC:o=0Fl	!	!	!LO:SIC:o=0Al	!	!	!LO:SIC:o=0fl	!	!
0FF;	.	-słał.	0F;	-lał.	-słał.	0A;	.	-słał.	0f;	.	-słał.
==	==	==	==	==	==	==	==	==	==	==	==
*-	*-	*-	*-	*-	*-	*-	*-	*-	*-	*-	*-
!!!system-decoration: [(*)]
!!LO:MO:ori
!!!RDF**kern: l = terminal long
!!LO:MO:mod
!! !!!RDF**kern: i = editorial accidental
!!LO:MO:end
!!!filter-modern: shed -e "s/TX(.*):t=P:/tx$1:t=P:/LG" | shed -e "s/^custos:/Xcustos:/I" | sic -sq | modori -m | autostem -r | tie -s | humtr -p | shed -e "s/-//B"
!!!ENC: Mateusz Solarz
!!!END: 2022-04-27
!!!EED: Wojciech Jakubiak-Danek
!!!EEV: 2022-05-10
!!!ENC-modern: Andrzej Kubiczek
!!!END-modern: 2022-07-24
!!!ENC-iiif: Emilia Ziętek
!!!END-iiif: 2022-09-03
